X: 18014
T: Hugo's
R: polka
M: 2/4
K: Amajor
E>F AE|cA ec|E>F AE|cA B2|
E>F AE|cA ec|f/e/a/f/ ec|BA A2:|
a>e fe|ce fe|a>e fe|cA BA|
a>e fe|ce fe|f/e/a/f/ ec|BA A2:|

